dist/assets/img/categoria-business.svg

<?xml version="1.0" encoding="UTF-8" standalone="no"?>
<svg width="27px" height="30px" viewBox="0 0 27 30" version="1.1" xmlns="http://www.w3.org/2000/svg" xmlns:xlink="http://www.w3.org/1999/xlink" xmlns:sketch="http://www.bohemiancoding.com/sketch/ns">
    <!-- Generator: sketchtool 3.4.4 (395) - http://www.bohemiancoding.com/sketch -->
    <title>business</title>
    <desc>Created with sketchtool.</desc>
    <defs></defs>
    <g id="Page-1" stroke="none" stroke-width="1" fill="none" fill-rule="evenodd" sketch:type="MSPage">
        <g id="Desktop-HD" sketch:type="MSArtboardGroup" transform="translate(-1148.000000, -499.000000)" fill="#FFFFFF">
            <g id="business" sketch:type="MSLayerGroup" transform="translate(1148.000000, 499.000000)">
                <path d="M24.6681733,21.4641209 C24.2612895,22.1687895 23.3567895,22.4111616 22.6521209,22.0042779 L22.6521209,22.0042779 C21.9472953,21.5973942 21.7049233,20.6928942 22.111807,19.9882256 C22.3849465,19.5152547 22.8819349,19.2505919 23.3924233,19.2505919 C23.6426442,19.2505919 23.8961616,19.3141674 24.1280163,19.4479116 C24.8326849,19.8549523 25.075057,20.7592953 24.6681733,21.4641209 M14.9374988,26.465557 C14.9374988,27.2796384 14.275214,27.9419233 13.4611326,27.9419233 C12.6470512,27.9419233 11.9847663,27.2796384 11.9847663,26.465557 C11.9847663,25.6514756 12.6470512,24.9893477 13.4611326,24.9893477 C14.275214,24.9893477 14.9374988,25.6514756 14.9374988,26.465557 M4.95173721,21.1186151 C4.8498593,21.4994407 4.60544651,21.8176326 4.26402209,22.0147953 C3.92275465,22.2119581 3.52497558,22.2642314 3.14415,22.1621965 C2.76332442,22.0601616 2.44513256,21.8159058 2.24812674,21.4744814 C1.84124302,20.7698128 2.08345814,19.8653128 2.78828372,19.4584291 C3.4931093,19.0513884 4.39745233,19.2939174 4.80433605,19.998743 C5.00149884,20.3400105 5.05377209,20.7377895 4.95173721,21.1186151 M4.79837093,10.0062314 C4.39148721,10.711057 3.48683023,10.9532721 2.78216163,10.5463884 C2.07733605,10.1395047 1.83512093,9.23516163 2.24200465,8.53033605 C2.51498721,8.05736512 3.01213256,7.79270233 3.52262093,7.79270233 C3.77284186,7.79270233 4.0263593,7.85627791 4.25805698,7.99017907 L4.25805698,7.99002209 C4.96288256,8.39690581 5.20525465,9.30140581 4.79837093,10.0062314 M21.9582837,8.87584186 C22.0603186,8.49501628 22.3045744,8.17666744 22.6461558,7.97966163 C22.8734581,7.84827209 23.1258767,7.78124302 23.3815919,7.78124302 C23.5098419,7.78124302 23.6387198,7.79803953 23.7658709,7.83210349 C24.1466965,7.93413837 24.4650453,8.17839419 24.6620512,8.5198186 C24.859214,8.86124302 24.9116442,9.25902209 24.8096093,9.63984767 C24.7075744,10.0206733 24.4633186,10.3388651 24.1218942,10.5358709 C23.4173826,10.9427547 22.5127256,10.7005395 22.1056849,9.99571395 C21.9086791,9.65428953 21.8562488,9.25651047 21.9582837,8.87584186 M25.1483651,17.6806674 C23.8245802,16.9165047 22.2056791,17.1141384 21.1044872,18.0541151 L15.8930163,15.0451849 C15.8928593,15.0137895 15.8895628,14.9830221 15.888307,14.9517837 L21.1082547,11.9379872 C21.7484058,12.4804988 22.5617023,12.7737314 23.3899116,12.7737314 C23.9861093,12.7737314 24.5898419,12.6220919 25.142243,12.3032721 C25.9556965,11.8335977 26.5376093,11.075243 26.7807663,10.1679174 C27.0237663,9.26059186 26.8989698,8.31292326 26.4294523,7.49946977 C25.9597779,6.68601628 25.2014233,6.10410349 24.2940977,5.86094651 C23.3867721,5.61794651 22.4391035,5.74274302 21.62565,6.21226047 C20.8121965,6.68209186 20.2302837,7.44028953 19.9871267,8.34761512 C19.8489872,8.86296977 19.8337605,9.39072558 19.9288884,9.90011512 L14.5700163,12.9487605 C14.5594988,12.9481326 14.5328128,12.9473477 14.4731616,12.9465628 L14.4731616,6.8411093 C15.8859523,6.35479535 16.8876209,5.05392907 16.8876209,3.5289 C16.8876209,1.5896093 15.3490919,0.0118360465 13.4098012,0.0118360465 C11.4705105,0.0118360465 9.83387093,1.5896093 9.83387093,3.5289 C9.83387093,5.05675465 10.8626965,6.35950465 12.1185105,6.84377791 L12.1185105,12.9566093 L6.90091744,9.91141744 C7.1583593,8.49140581 6.57864419,7.03262093 5.25878372,6.24773721 L5.26867326,6.24773721 C3.58933605,5.30587674 1.43922558,5.84320814 0.469894186,7.52254535 C-0.499751163,9.20172558 0.0801209302,11.3504233 1.75945814,12.3199116 C2.3118593,12.6388884 2.91684767,12.7872314 3.51304535,12.7872314 C4.34549302,12.7872314 5.16365581,12.4899174 5.80537674,11.9419116 L11.1002023,14.9979349 L5.80192326,18.0566267 C4.70088837,17.123557 3.08763837,16.9292198 1.76777791,17.6913419 L1.76777791,17.6911849 C0.0885976744,18.6608302 -0.488762791,20.81565 0.480725581,22.4949872 C0.9504,23.3084407 1.70875465,23.8903535 2.61608023,24.1335105 C2.91904535,24.2146674 3.22640581,24.2546965 3.53188256,24.2546965 C4.14126628,24.2546965 4.74264419,24.0948942 5.28452791,23.7820395 C6.0979814,23.3123651 6.67989419,22.5540105 6.92305116,21.6468419 C7.06103372,21.1313302 7.07641744,20.6037314 6.98128953,20.0943419 L12.1547721,17.0620221 C12.168743,17.0708128 12.1185105,17.0791326 12.1185105,17.0876093 L12.1185105,23.1547605 C10.8626965,23.6423302 9.86558023,24.9420977 9.86558023,26.465557 C9.86558023,28.4048477 11.4825977,29.9826209 13.4218884,29.9826209 C15.3611791,29.9826209 16.880086,28.4048477 16.880086,26.465557 C16.880086,24.9359756 15.8859523,23.6321267 14.4731616,23.1491093 L14.4731616,17.1541674 C14.6301384,17.1354872 14.6199349,17.1144523 14.6538419,17.0940453 L19.8915279,20.0954407 C19.634086,21.5154523 20.2922895,23.009557 21.61215,23.7715221 C22.1645512,24.0904988 22.7780163,24.2421384 23.374214,24.2419814 C24.5904698,24.2419814 25.7800395,23.6112488 26.4305512,22.4844698 C27.4000395,20.8051326 26.8275453,18.6501558 25.1483651,17.6806674" sketch:type="MSShapeGroup"></path>
            </g>
        </g>
    </g>
</svg>

<svg width="27" height="30" viewBox="0 0 27 30" xmlns="http://www.w3.org/2000/svg"><title>business</title><g id="Page-1" fill="none" fill-rule="evenodd"><g id="Desktop-HD" transform="translate(-1148 -499)" fill="#FFF"><path d="M24.668 21.464a1.478 1.478 0 0 1-2.016.54 1.477 1.477 0 1 1 2.016-.54m-9.73 5.002c0 .814-.663 1.476-1.477 1.476a1.478 1.478 0 0 1-1.476-1.476c0-.815.662-1.477 1.476-1.477s1.476.662 1.476 1.477m-9.985-5.347c-.102.38-.347.699-.688.896-.341.197-.739.25-1.12.147a1.477 1.477 0 0 1-.356-2.704 1.477 1.477 0 0 1 2.164 1.66m-.154-11.112a1.478 1.478 0 0 1-2.016.54 1.477 1.477 0 0 1 .74-2.753 1.478 1.478 0 0 1 1.276 2.214m17.16-1.131c.102-.381.347-.7.688-.896a1.466 1.466 0 0 1 1.12-.148c.38.102.699.346.896.688.197.341.25.739.148 1.12a1.478 1.478 0 0 1-2.851-.764m3.19 8.805a3.523 3.523 0 0 0-4.045.373l-5.211-3.009c0-.031-.003-.062-.005-.093l5.22-3.014c.64.542 1.454.836 2.282.836.596 0 1.2-.152 1.752-.47a3.494 3.494 0 0 0 1.639-2.136 3.495 3.495 0 0 0-.352-2.669 3.494 3.494 0 0 0-2.135-1.638 3.495 3.495 0 0 0-2.668.351 3.494 3.494 0 0 0-1.639 2.136A3.498 3.498 0 0 0 19.93 9.9L14.57 12.95c-.01 0-.037-.002-.097-.002V6.84c1.413-.486 2.415-1.787 2.415-3.312 0-1.94-1.539-3.517-3.478-3.517-1.94 0-3.576 1.578-3.576 3.517 0 1.528 1.029 2.83 2.285 3.315v6.113L6.9 9.91c.257-1.42-.322-2.878-1.642-3.663h.01c-1.68-.942-3.83-.405-4.8 1.275a3.514 3.514 0 0 0 1.29 4.797 3.495 3.495 0 0 0 1.754.467c.832 0 1.65-.297 2.292-.845l5.295 3.056-5.298 3.059a3.522 3.522 0 0 0-4.034-.366A3.52 3.52 0 0 0 .48 22.495a3.494 3.494 0 0 0 2.135 1.639 3.496 3.496 0 0 0 2.668-.351 3.494 3.494 0 0 0 1.64-2.136 3.5 3.5 0 0 0 .057-1.553l5.174-3.032c.014.009-.036.017-.036.026v6.067c-1.256.487-2.253 1.787-2.253 3.31 0 1.94 1.617 3.518 3.556 3.518 1.94 0 3.458-1.578 3.458-3.517 0-1.53-.994-2.834-2.407-3.317v-5.995c.157-.019.147-.04.18-.06l5.239 3.001a3.536 3.536 0 0 0 3.482 4.147c1.216 0 2.406-.63 3.057-1.758a3.52 3.52 0 0 0-1.283-4.803" transform="translate(1148 499)" id="business"/></g></g></svg>
